; generated by Slic3r 1.3.1-dev on 2023-06-27 at 17:33:32

; external perimeters extrusion width = 0.55mm (3.04mm^3/s)
; perimeters extrusion width = 0.70mm (7.88mm^3/s)
; infill extrusion width = 0.63mm (9.31mm^3/s)
; solid infill extrusion width = 0.70mm (2.63mm^3/s)
; top infill extrusion width = 0.70mm (1.97mm^3/s)

M107
M190 S50 ; set bed temperature and wait for it to be reached
M104 S215 ; set temperature
G28 ; home all axes
G1 Z5 F5000 ; lift nozzle

; Filament gcode

M109 S215 ; set temperature and wait for it to be reached
G21 ; set units to millimeters
G90 ; use absolute coordinates
M82 ; use absolute distances for extrusion
G92 E0
G92 E0
G1 Z0.200 F7800.000
G1 E-2.00000 F2400.00000
G92 E0
G1 X21.435 Y17.770 F7800.000
G1 E2.00000 F2400.00000
G1 F1800
G1 X22.368 Y16.766 E2.04475
G1 X23.858 Y15.475 E2.10917
G1 X26.107 Y14.217 E2.19332
G1 X35.186 Y11.350 E2.50428
G1 X35.686 Y11.214 E2.52119
G1 X37.575 Y10.783 E2.58447
G1 X39.309 Y10.632 E2.64132
G1 X99.296 Y13.649 E4.60302
G1 X99.882 Y13.706 E4.62222
G1 X101.834 Y13.987 E4.68664
G1 X103.966 Y14.694 E4.76000
G1 X105.092 Y15.475 E4.80476
G1 X106.582 Y16.766 E4.86917
G1 X107.993 Y18.514 E4.94253
G1 X108.519 Y19.779 E4.98729
G1 X109.075 Y21.672 E5.05170
G1 X109.332 Y23.463 E5.11080
G1 X109.332 Y131.463 E8.63812
G1 X109.159 Y132.936 E8.68656
G1 X99.159 Y174.918 E10.09609
G1 X98.519 Y177.128 E10.17125
G1 X97.515 Y179.138 E10.24461
G1 X96.583 Y180.142 E10.28936
G1 X95.092 Y181.433 E10.35378
G1 X93.161 Y182.581 E10.42714
G1 X91.834 Y182.921 E10.47190
G1 X89.882 Y183.202 E10.53631
G1 X88.977 Y183.267 E10.56593
G1 X29.973 Y183.267 E12.49302
G1 X29.068 Y183.202 E12.52264
G1 X27.116 Y182.921 E12.58705
G1 X24.985 Y182.214 E12.66042
G1 X23.858 Y181.433 E12.70517
G1 X22.368 Y180.142 E12.76959
G1 X20.957 Y178.394 E12.84295
G1 X20.431 Y177.128 E12.88771
G1 X19.875 Y175.236 E12.95212
G1 X19.618 Y173.445 E13.01121
G1 X19.618 Y23.463 E17.90971
G1 X19.876 Y21.672 E17.96880
G1 X20.431 Y19.779 E18.03321
G1 X21.401 Y17.837 E18.10413
G1 E16.10413 F2400.00000
G92 E0
G1 X31.834 Y24.599 F7800.000
G1 E2.00000 F2400.00000
G1 F1800
G1 X30.058 Y26.015 E2.07421
G1 X27.843 Y25.510 E2.14841
G1 X26.857 Y23.463 E2.22262
G1 X27.843 Y21.416 E2.29683
G1 X30.058 Y20.910 E2.37104
G1 X31.834 Y22.327 E2.44524
G1 X31.834 Y24.524 E2.51700
G1 X31.477 Y24.427 F7800.000
G1 F1800
G1 X29.970 Y25.629 E2.57998
G1 X28.090 Y25.200 E2.64295
G1 X27.253 Y23.463 E2.70593
G1 X28.090 Y21.725 E2.76890
G1 X29.970 Y21.296 E2.83187
G1 X31.477 Y22.499 E2.89485
G1 X31.477 Y24.352 E2.95537
G1 X31.477 Y24.427 F7800.000
G1 X32.905 Y23.834 F7800.000
G1 F1800
G1 X32.905 Y23.091 E2.97965
G1 X33.389 Y23.091 E2.99546
G1 X33.310 Y23.463 E3.00787
G1 X33.389 Y23.834 E3.02028
G1 X32.980 Y23.834 E3.03364
G1 X32.548 Y24.191 F7800.000
G1 F1800
G1 X32.548 Y22.734 E3.08125
G1 X33.830 Y22.734 E3.12312
G1 X33.675 Y23.463 E3.14745
G1 X33.830 Y24.191 E3.17179
G1 X32.623 Y24.191 E3.21121
G1 X32.191 Y24.549 F7800.000
G1 F1800
G1 X32.191 Y22.377 E3.28214
G1 X33.879 Y22.377 E3.33726
G1 X34.236 Y21.635 E3.36416
G1 X34.416 Y21.696 E3.37037
G1 X34.040 Y23.463 E3.42936
G1 X34.271 Y24.549 E3.46561
G1 X32.266 Y24.549 E3.53110
G1 E1.53110 F2400.00000
G92 E0
G1 X34.717 Y20.636 F7800.000
G1 E2.00000 F2400.00000
G1 F1800
G1 X34.868 Y20.322 E2.01137
G1 X35.186 Y19.979 E2.02663
G1 X35.342 Y20.108 E2.03322
G1 X34.885 Y20.736 E2.05858
G1 X34.782 Y20.674 E2.06253
G1 E0.06253 F2400.00000
G92 E0
G1 X38.636 Y18.206 F7800.000
G1 E2.00000 F2400.00000
G1 F1800
G1 X38.603 Y18.007 E2.00659
G1 X39.058 Y17.903 E2.02185
G1 X39.406 Y17.929 E2.03322
G1 X39.408 Y18.125 E2.03961
G1 X38.711 Y18.198 E2.06253
G1 X40.475 Y18.198 F7800.000
G1 F1800
G1 X40.511 Y18.012 E2.06873
G1 X40.716 Y18.027 E2.07543
G1 X41.174 Y18.207 E2.09149
G1 X41.103 Y18.402 E2.09828
G1 X40.546 Y18.221 E2.11742
G1 E0.11742 F2400.00000
G92 E0
G1 X43.043 Y19.522 F7800.000
G1 E2.00000 F2400.00000
G1 F1800
G1 X43.178 Y19.364 E2.00679
G1 X43.562 Y19.670 E2.02285
G1 X43.678 Y19.840 E2.02955
G1 X43.535 Y19.965 E2.03575
G1 X43.099 Y19.573 E2.05490
G1 X44.131 Y20.851 F7800.000
G1 F1800
G1 X44.302 Y20.756 E2.06129
G1 X44.498 Y21.044 E2.07266
G1 X44.636 Y21.490 E2.08792
G1 X44.447 Y21.561 E2.09451
G1 X44.162 Y20.920 E2.11743
G1 E0.11743 F2400.00000
G92 E0
G1 X45.505 Y23.091 F7800.000
G1 E2.00000 F2400.00000
G1 F1800
G1 X83.445 Y23.091 E3.23914
G1 X83.445 Y23.834 E3.26342
G1 X45.505 Y23.834 E4.50255
G1 X45.505 Y23.166 E4.52438
G1 X45.148 Y22.734 F7800.000
G1 F1800
G1 X83.802 Y22.734 E5.78685
G1 X83.802 Y24.191 E5.83445
G1 X45.148 Y24.191 E7.09691
G1 X45.148 Y22.809 E7.14207
G1 X44.791 Y22.377 F7800.000
G1 F1800
G1 X84.159 Y22.377 E8.42785
G1 X84.159 Y24.549 E8.49878
G1 X44.791 Y24.549 E9.78457
G1 X44.791 Y22.452 E9.85305
G1 E7.85305 F2400.00000
G92 E0
G1 X84.314 Y25.435 F7800.000
G1 E2.00000 F2400.00000
G1 F1800
G1 X84.503 Y25.365 E2.00659
G1 X84.819 Y26.074 E2.03196
G1 X84.648 Y26.169 E2.03835
G1 X84.452 Y25.882 E2.04972
G1 X84.336 Y25.507 E2.06253
G1 X85.416 Y26.961 F7800.000
G1 F1800
G1 X85.907 Y27.403 E2.08412
G1 X85.772 Y27.562 E2.09091
G1 X85.388 Y27.255 E2.10698
G1 X85.272 Y27.086 E2.11367
G1 X85.359 Y27.010 E2.11743
G1 E0.11743 F2400.00000
G92 E0
G1 X87.847 Y28.523 F7800.000
G1 E2.00000 F2400.00000
G1 F1800
G1 X88.475 Y28.727 E2.02159
G1 X88.439 Y28.914 E2.02780
G1 X88.234 Y28.898 E2.03449
G1 X87.777 Y28.719 E2.05056
G1 X87.821 Y28.594 E2.05490
G1 X89.542 Y28.801 F7800.000
G1 F1800
G1 X90.314 Y28.720 E2.08026
G1 X90.347 Y28.919 E2.08685
G1 X89.892 Y29.023 E2.10211
G1 X89.545 Y28.997 E2.11348
G1 X89.543 Y28.876 E2.11742
G1 E0.11742 F2400.00000
G92 E0
G1 X93.608 Y26.818 F7800.000
G1 E2.00000 F2400.00000
G1 F1800
G1 X94.065 Y26.189 E2.02537
G1 X94.233 Y26.290 E2.03176
G1 X94.082 Y26.603 E2.04313
G1 X93.764 Y26.946 E2.05839
G1 X93.666 Y26.865 E2.06253
G1 E0.06253 F2400.00000
G92 E0
G1 X95.561 Y23.834 F7800.000
G1 E2.00000 F2400.00000
G1 F1800
G1 X95.640 Y23.463 E2.01241
G1 X95.561 Y23.091 E2.02482
G1 X96.045 Y23.091 E2.04063
G1 X96.045 Y23.834 E2.06491
G1 X95.636 Y23.834 E2.07827
G1 X95.120 Y24.191 F7800.000
G1 F1800
G1 X95.275 Y23.463 E2.10260
G1 X95.120 Y22.734 E2.12694
G1 X96.402 Y22.734 E2.16881
G1 X96.402 Y24.191 E2.21641
G1 X95.195 Y24.191 E2.25584
G1 X94.534 Y25.229 F7800.000
G1 F1800
G1 X94.910 Y23.463 E2.31482
G1 X94.679 Y22.377 E2.35108
G1 X96.759 Y22.377 E2.41902
G1 X96.759 Y24.549 E2.48995
G1 X95.071 Y24.549 E2.54506
G1 X94.714 Y25.291 E2.57197
G1 X94.605 Y25.254 E2.57573
G1 E0.57573 F2400.00000
G92 E0
G1 X97.116 Y24.599 F7800.000
G1 E2.00000 F2400.00000
G1 F1800
G1 X97.116 Y22.327 E2.07421
G1 X98.637 Y21.113 E2.13776
G1 X98.892 Y20.910 E2.14841
G1 X101.108 Y21.416 E2.22262
G1 X102.093 Y23.463 E2.29683
G1 X101.108 Y25.510 E2.37104
G1 X98.892 Y26.015 E2.44524
G1 X97.175 Y24.645 E2.51700
G1 X97.473 Y24.427 F7800.000
G1 F1800
G1 X97.473 Y22.499 E2.57998
G1 X98.860 Y21.393 E2.63792
G1 X98.981 Y21.296 E2.64295
G1 X100.860 Y21.725 E2.70593
G1 X101.697 Y23.463 E2.76890
G1 X100.860 Y25.200 E2.83187
G1 X98.981 Y25.629 E2.89485
G1 X97.532 Y24.474 E2.95537
G1 X97.473 Y24.427 F7800.000
G1 E0.95537 F2400.00000
G92 E0
G1 X95.296 Y24.906 F7800.000
G1 E2.00000 F2400.00000
G1 F1800
G1 X94.380 Y26.807 E2.06892
G1 X93.177 Y28.104 E2.12672
G1 X91.644 Y28.989 E2.18452
G1 X89.919 Y29.383 E2.24231
G1 X88.154 Y29.250 E2.30011
G1 X86.507 Y28.604 E2.35790
G1 X85.123 Y27.501 E2.41570
G1 X84.126 Y26.038 E2.47350
G1 X83.777 Y24.906 E2.51222
G1 X44.261 Y24.906 E3.80284
G1 X44.434 Y24.517 E3.81674
G1 X44.434 Y22.409 E3.88559
G1 X43.576 Y20.483 E3.95444
G1 X42.010 Y19.072 E4.02329
G1 X40.005 Y18.421 E4.09214
G1 X37.909 Y18.641 E4.16098
G1 X36.083 Y19.695 E4.22983
G1 X34.844 Y21.401 E4.29868
G1 X34.406 Y23.463 E4.36753
G1 X34.712 Y24.906 E4.41571
G1 X31.877 Y24.906 E4.50830
G1 X31.387 Y25.669 E4.53793
G1 X29.891 Y26.352 E4.59166
G1 X28.262 Y26.118 E4.64539
G1 X27.019 Y25.041 E4.69911
G1 X26.556 Y23.463 E4.75284
G1 X27.019 Y21.884 E4.80656
G1 X28.262 Y20.807 E4.86029
G1 X29.891 Y20.573 E4.91401
G1 X31.387 Y21.256 E4.96774
G1 X31.877 Y22.020 E4.99738
G1 X33.654 Y22.020 E5.05541
G1 X34.570 Y20.118 E5.12434
G1 X35.774 Y18.821 E5.18213
G1 X37.306 Y17.936 E5.23993
G1 X39.031 Y17.543 E5.29773
G1 X40.796 Y17.675 E5.35552
G1 X42.443 Y18.321 E5.41332
G1 X43.827 Y19.425 E5.47111
G1 X44.824 Y20.887 E5.52891
G1 X45.173 Y22.020 E5.56763
G1 X84.689 Y22.020 E6.85825
G1 X84.516 Y22.409 E6.87215
G1 X84.516 Y24.517 E6.94100
G1 X85.374 Y26.442 E7.00985
G1 X86.940 Y27.853 E7.07870
G1 X88.945 Y28.504 E7.14755
G1 X91.042 Y28.284 E7.21640
G1 X92.867 Y27.230 E7.28525
G1 X94.106 Y25.525 E7.35410
G1 X94.545 Y23.463 E7.42295
G1 X94.238 Y22.020 E7.47112
G1 X97.073 Y22.020 E7.56371
G1 X97.563 Y21.256 E7.59335
G1 X99.060 Y20.573 E7.64707
G1 X100.688 Y20.807 E7.70080
G1 X101.931 Y21.884 E7.75452
G1 X102.394 Y23.463 E7.80825
G1 X101.931 Y25.041 E7.86198
G1 X100.688 Y26.118 E7.91570
G1 X99.060 Y26.352 E7.96943
G1 X97.563 Y25.669 E8.02315
G1 X97.073 Y24.906 E8.05279
G1 X95.371 Y24.906 E8.10838
G1 X95.520 Y25.263 F7800.000
G1 F1800
G1 X94.679 Y27.010 E8.17173
G1 X93.402 Y28.386 E8.23304
G1 X91.776 Y29.325 E8.29435
G1 X89.946 Y29.743 E8.35567
G1 X88.074 Y29.603 E8.41698
G1 X86.326 Y28.917 E8.47829
G1 X84.859 Y27.746 E8.53960
G1 X83.801 Y26.195 E8.60091
G1 X83.513 Y25.263 E8.63279
G1 X43.711 Y25.263 E9.93275
G1 X44.077 Y24.441 E9.96214
G1 X44.077 Y22.485 E10.02603
G1 X43.281 Y20.697 E10.08992
G1 X41.827 Y19.388 E10.15381
G1 X39.967 Y18.784 E10.21770
G1 X38.021 Y18.988 E10.28159
G1 X36.327 Y19.967 E10.34548
G1 X35.177 Y21.549 E10.40938
G1 X34.771 Y23.463 E10.47327
G1 X35.153 Y25.263 E10.53337
G1 X32.072 Y25.263 E10.63399
G1 X31.631 Y25.950 E10.66068
G1 X29.944 Y26.721 E10.72126
G1 X28.108 Y26.457 E10.78183
G1 X26.706 Y25.242 E10.84241
G1 X26.184 Y23.463 E10.90298
G1 X26.706 Y21.683 E10.96355
G1 X28.108 Y20.469 E11.02413
G1 X29.944 Y20.205 E11.08470
G1 X31.631 Y20.975 E11.14528
G1 X32.072 Y21.663 E11.17197
G1 X33.430 Y21.663 E11.21631
G1 X34.272 Y19.915 E11.27966
G1 X35.549 Y18.539 E11.34098
G1 X37.174 Y17.600 E11.40229
G1 X39.004 Y17.183 E11.46360
G1 X40.876 Y17.323 E11.52491
G1 X42.624 Y18.009 E11.58622
G1 X44.092 Y19.179 E11.64754
G1 X45.149 Y20.730 E11.70885
G1 X45.437 Y21.663 E11.74072
G1 X85.239 Y21.663 E13.04069
G1 X84.873 Y22.485 E13.07007
G1 X84.873 Y24.441 E13.13396
G1 X85.669 Y26.228 E13.19785
G1 X87.123 Y27.537 E13.26175
G1 X88.983 Y28.141 E13.32564
G1 X90.929 Y27.937 E13.38953
G1 X92.623 Y26.959 E13.45342
G1 X93.773 Y25.376 E13.51731
G1 X94.180 Y23.463 E13.58120
G1 X93.797 Y21.663 E13.64130
G1 X96.878 Y21.663 E13.74192
G1 X97.320 Y20.975 E13.76862
G1 X99.007 Y20.205 E13.82919
G1 X100.842 Y20.469 E13.88977
G1 X102.244 Y21.683 E13.95034
G1 X102.767 Y23.463 E14.01091
G1 X102.244 Y25.242 E14.07149
G1 X100.842 Y26.457 E14.13206
G1 X99.007 Y26.721 E14.19264
G1 X97.320 Y25.950 E14.25321
G1 X96.878 Y25.263 E14.27991
G1 X95.595 Y25.263 E14.32180
G1 X95.064 Y25.058 F7800.000
G1 X95.824 Y23.656 F7800.000
G1 F1800
G1 X95.865 Y23.270 E14.32297
G1 X95.824 Y23.270 F7800.000
G1 F1800
G1 X95.865 Y23.656 E14.32415
G1 E12.32415 F2400.00000
G92 E0
G1 X97.442 Y25.113 F7800.000
G1 E2.00000 F2400.00000
G1 F1800
G1 X97.544 Y25.226 E2.00073
G1 F1800
G1 X97.750 Y25.454 E2.00484
G1 X97.921 Y25.559 E2.00754
G1 F1800
G1 X98.264 Y25.770 E2.00947
G1 X99.476 Y26.089 F7800.000
G1 F1800
G1 X100.715 Y25.859 E2.02038
G1 X101.633 Y25.063 F7800.000
G1 F1800
G1 X101.749 Y24.761 E2.02421
G1 F1800
G1 X101.981 Y24.158 E2.02696
G1 X101.981 Y22.768 F7800.000
G1 F1800
G1 X101.749 Y22.164 E2.02971
G1 F1800
G1 X101.633 Y21.862 E2.03354
G1 X100.715 Y21.066 F7800.000
G1 F1800
G1 X99.476 Y20.837 E2.04446
G1 X98.264 Y21.156 F7800.000
G1 F1800
G1 X97.921 Y21.366 E2.04638
G1 F1800
G1 X97.750 Y21.472 E2.04908
G1 X97.544 Y21.699 E2.05319
G1 F1800
G1 X97.442 Y21.813 E2.05392
G1 E0.05392 F2400.00000
G92 E0
G1 X93.573 Y27.020 F7800.000
G1 E2.00000 F2400.00000
G1 F1800
G1 X93.176 Y27.502 E2.02647
G1 X92.889 Y27.744 E2.04242
G1 X91.476 Y28.560 E2.11168
G1 X91.122 Y28.688 E2.12762
G1 X90.507 Y28.790 E2.15410
G1 E0.15410 F2400.00000
G92 E0
G1 X87.644 Y28.561 F7800.000
G1 E2.00000 F2400.00000
G1 F1800
G1 X86.724 Y28.228 E2.04430
G1 X85.976 Y27.598 E2.08860
G1 E0.08860 F2400.00000
G92 E0
G1 X83.267 Y23.463 F7800.000
G1 E2.00000 F2400.00000
G1 F1800
G1 X45.684 Y23.463 E3.18035
G1 E1.18035 F2400.00000
G92 E0
G1 X42.974 Y19.328 F7800.000
G1 E2.00000 F2400.00000
G1 F1800
G1 X42.226 Y18.697 E2.04430
G1 X41.307 Y18.365 E2.08860
G1 E0.08860 F2400.00000
G92 E0
G1 X38.443 Y18.135 F7800.000
G1 E2.00000 F2400.00000
G1 F1800
G1 X37.828 Y18.238 E2.02648
G1 X37.475 Y18.366 E2.04242
G1 X36.061 Y19.182 E2.11168
G1 X35.774 Y19.424 E2.12762
G1 X35.377 Y19.906 E2.15410
G1 E0.15410 F2400.00000
G92 E0
G1 X33.126 Y23.270 F7800.000
G1 E2.00000 F2400.00000
G1 F1800
G1 X33.085 Y23.656 E2.00118
G1 X33.126 Y23.656 F7800.000
G1 F1800
G1 X33.085 Y23.270 E2.00236
G1 E0.00236 F2400.00000
G92 E0
G1 X31.508 Y21.813 F7800.000
G1 E2.00000 F2400.00000
G1 F1800
G1 X31.303 Y21.585 E2.00147
G1 F1800
G1 X31.200 Y21.472 E2.00352
G1 X30.857 Y21.261 E2.00892
G1 F1800
G1 X30.686 Y21.156 E2.00988
G1 X29.474 Y20.837 F7800.000
G1 F1800
G1 X28.704 Y20.979 E2.01190
G1 F1800
G1 X28.236 Y21.066 E2.01602
G1 X27.317 Y21.862 F7800.000
G1 F1800
G1 X27.085 Y22.466 E2.02368
G1 F1800
G1 X26.969 Y22.768 E2.02506
G1 X26.969 Y24.158 F7800.000
G1 F1800
G1 X27.085 Y24.459 E2.02643
G1 F1800
G1 X27.317 Y25.063 E2.03409
G1 X28.236 Y25.859 F7800.000
G1 F1800
G1 X29.474 Y26.089 E2.03984
G1 X30.686 Y25.770 F7800.000
G1 F1800
G1 X30.857 Y25.664 E2.04080
G1 F1800
G1 X31.200 Y25.454 E2.04620
G1 X31.303 Y25.340 E2.04826
G1 F1800
G1 X31.508 Y25.113 E2.04972
G1 Z0.200 F7800.000
G1 E0.04972 F2400.00000
G92 E0
G1 X30.058 Y36.893 F7800.000
G1 E2.00000 F2400.00000
G1 F1800
G1 X31.834 Y38.309 E2.07421
G1 X31.834 Y40.581 E2.14841
G1 X30.058 Y41.998 E2.22262
G1 X27.843 Y41.492 E2.29683
G1 X26.857 Y39.445 E2.37104
G1 X27.843 Y37.398 E2.44524
G1 X29.985 Y36.909 E2.51700
G1 X29.970 Y37.279 F7800.000
G1 F1800
G1 X31.477 Y38.481 E2.57998
G1 X31.477 Y40.409 E2.64295
G1 X29.970 Y41.612 E2.70593
G1 X28.090 Y41.182 E2.76890
G1 X27.253 Y39.445 E2.83187
G1 X28.090 Y37.708 E2.89485
G1 X29.896 Y37.296 E2.95537
G1 X29.970 Y37.279 F7800.000
G1 E0.95537 F2400.00000
G92 E0
G1 X32.905 Y39.074 F7800.000
G1 E2.00000 F2400.00000
G1 F1800
G1 X86.045 Y39.074 E3.73556
G1 X86.045 Y39.817 E3.75984
G1 X32.905 Y39.817 E5.49540
G1 X32.905 Y39.149 E5.51722
G1 X32.548 Y38.716 F7800.000
G1 F1800
G1 X86.402 Y38.716 E7.27611
G1 X86.402 Y40.174 E7.32371
G1 X32.548 Y40.174 E9.08259
G1 X32.548 Y38.791 E9.12775
G1 X32.191 Y38.359 F7800.000
G1 F1800
G1 X86.759 Y38.359 E10.90996
G1 X86.759 Y40.531 E10.98088
G1 X32.191 Y40.531 E12.76309
G1 X32.191 Y38.434 E12.83157
G1 E10.83157 F2400.00000
G92 E0
G1 X87.116 Y38.359 F7800.000
G1 E2.00000 F2400.00000
G1 F1800
G1 X87.116 Y38.309 E2.00164
G1 X88.892 Y36.893 E2.07585
G1 X91.108 Y37.398 E2.15005
G1 X92.093 Y39.445 E2.22426
G1 X91.108 Y41.492 E2.29847
G1 X88.892 Y41.998 E2.37268
G1 X87.116 Y40.581 E2.44688
G1 X87.116 Y38.434 E2.51700
G1 X87.473 Y38.481 F7800.000
G1 F1800
G1 X88.981 Y37.279 E2.57998
G1 X90.860 Y37.708 E2.64295
G1 X91.697 Y39.445 E2.70593
G1 X90.860 Y41.182 E2.76890
G1 X88.981 Y41.612 E2.83188
G1 X87.473 Y40.409 E2.89485
G1 X87.473 Y38.556 E2.95537
G1 X87.473 Y38.481 F7800.000
G1 X87.073 Y38.002 F7800.000
G1 F1800
G1 X87.563 Y37.239 E2.98501
G1 X89.060 Y36.556 E3.03874
G1 X90.688 Y36.790 E3.09246
G1 X91.931 Y37.867 E3.14619
G1 X92.394 Y39.445 E3.19992
G1 X91.931 Y41.024 E3.25364
G1 X90.688 Y42.101 E3.30737
G1 X89.060 Y42.335 E3.36109
G1 X87.563 Y41.652 E3.41482
G1 X87.073 Y40.888 E3.44446
G1 X31.877 Y40.888 E5.24716
G1 X31.387 Y41.652 E5.27679
G1 X29.891 Y42.335 E5.33052
G1 X28.262 Y42.101 E5.38425
G1 X27.019 Y41.024 E5.43797
G1 X26.556 Y39.445 E5.49170
G1 X27.019 Y37.867 E5.54542
G1 X27.720 Y37.260 E5.57571
G1 X28.262 Y36.790 E5.59915
G1 X29.891 Y36.556 E5.65287
G1 X31.387 Y37.239 E5.70660
G1 X31.877 Y38.002 E5.73624
G1 X86.998 Y38.002 E7.53649
G1 X86.878 Y37.645 F7800.000
G1 F1800
G1 X87.320 Y36.958 E7.56318
G1 X89.007 Y36.187 E7.62376
